dist/img/bonus.svg

<svg width="20" height="28" viewBox="0 0 20 28" fill="none" xmlns="http://www.w3.org/2000/svg">
<path d="M19.1667 7.33268H15.8333V6.49935C15.8333 3.28284 13.2165 0.666016 10 0.666016C6.78349 0.666016 4.16667 3.28284 4.16667 6.49935V7.33268H0.833333C0.373073 7.33268 0 7.70581 0 8.16602V24.8327C0 26.2112 1.12151 27.3327 2.5 27.3327H17.5C18.8785 27.3327 20 26.2112 20 24.8327V8.16602C20 7.70581 19.6269 7.33268 19.1667 7.33268ZM5.83333 6.49935C5.83333 4.20185 7.7025 2.33268 10 2.33268C12.2975 2.33268 14.1667 4.20185 14.1667 6.49935V7.33268H5.83333V6.49935ZM18.3333 24.8327C18.3333 25.2922 17.9595 25.666 17.5 25.666H2.5C2.04052 25.666 1.66667 25.2922 1.66667 24.8327V8.99935H4.16667V10.666C4.16667 11.1262 4.53974 11.4993 5 11.4993C5.46026 11.4993 5.83333 11.1262 5.83333 10.666V8.99935H14.1667V10.666C14.1667 11.1262 14.5397 11.4993 15 11.4993C15.4603 11.4993 15.8333 11.1262 15.8333 10.666V8.99935H18.3333V24.8327Z" fill="#333333"/>
<path d="M13.4266 13.758C13.0634 13.4755 12.5399 13.541 12.2572 13.9042L6.42388 21.4042C5.99534 21.9553 6.39685 22.7492 7.08112 22.7492C7.32945 22.7492 7.57518 22.6387 7.73951 22.4275L13.5728 14.9275C13.8554 14.5642 13.7899 14.0406 13.4266 13.758Z" fill="#333333"/>
<path d="M12.9167 22.7493C13.8371 22.7493 14.5833 22.0032 14.5833 21.0827C14.5833 20.1622 13.8371 19.416 12.9167 19.416C11.9962 19.416 11.25 20.1622 11.25 21.0827C11.25 22.0032 11.9962 22.7493 12.9167 22.7493Z" fill="#333333"/>
<path d="M7.08366 16.9159C8.00413 16.9159 8.75033 16.1697 8.75033 15.2492C8.75033 14.3287 8.00413 13.5825 7.08366 13.5825C6.16318 13.5825 5.41699 14.3287 5.41699 15.2492C5.41699 16.1697 6.16318 16.9159 7.08366 16.9159Z" fill="#333333"/>
</svg>

<svg width="20" height="28" fill="none" xmlns="http://www.w3.org/2000/svg"><path d="M19.167 7.333h-3.334v-.834A5.84 5.84 0 0010 .666a5.84 5.84 0 00-5.833 5.833v.834H.833A.833.833 0 000 8.166v16.667c0 1.378 1.122 2.5 2.5 2.5h15c1.378 0 2.5-1.122 2.5-2.5V8.166a.833.833 0 00-.833-.833zM5.833 6.499A4.171 4.171 0 0110 2.333a4.171 4.171 0 014.167 4.166v.834H5.833v-.834zm12.5 18.334c0 .46-.373.833-.833.833h-15a.834.834 0 01-.833-.833V8.999h2.5v1.667a.833.833 0 001.666 0V8.999h8.334v1.667a.833.833 0 101.666 0V8.999h2.5v15.834z" fill="#333"/><path d="M13.427 13.758a.833.833 0 00-1.17.146l-5.833 7.5c-.429.551-.027 1.345.657 1.345.248 0 .494-.11.659-.322l5.833-7.5a.833.833 0 00-.146-1.169zm-.51 8.992a1.667 1.667 0 100-3.334 1.667 1.667 0 000 3.333zm-5.833-5.834a1.667 1.667 0 100-3.333 1.667 1.667 0 000 3.333z" fill="#333"/></svg>
